X: 1
T: Christy Barry's
M: 6/8
L: 1/8
K: G
DGG BAG|A2 B d2 e|ged BAG|AGA BGE|
DGG BAG |A2 B d2 e|ged BAG|1 AGF G2 E:|2 AGF GBd|| 
~g3 gfg|a2 g d2 e|ged BAG|AGA BGE|
DGG BAG |A2 B d2 e|ged BAG|1 AGF GBd:|2 AGF G2 E||
